X:365
T:Reel 365
M:4/4
K:Gmaj
L:1/8
D2|G2BG ADDd|BGBd g2fg|ecAG FGAc||BGAG FADF:||2BGAF G2|Bd|e2dg egdg| (3bag  (3agf g2gd| (3cde Bc Bd (3Bcd |egfa gedc| (3BAG dG eGdG| (3Bcd gf e2d2|egfg egfa|gedB G2|
